X: 10
T:POLKA PIQUEE
M:6/8
L:1/8
Q:1/4=85
K:G
|dB/2dB/2 B/2c/2d/2e3/2|cA/2cA/2 A/2B/2c/2d3/2|BG/2BG/2 G/2A/2B/2c3/2|AG
/2FD/2 EF/2G3/2|!
|:d3/2B3/2 GG/2AB/2|c3/2A3/2 GF/2G3/2:|
